X: 2052
T: Ask My Father
R: slide
M: 12/8
K: Gmajor
AG|:F2D ~D3 F2D D2F|A2c BAG A3 A2G|
F2D ~D3 F2D D2F|1 G2B AGF G3 A2G:|2 G2B AGF G3 F2G||
A2d- d2e f2d cAG|A2c BAG A3 F2G|
A2d- d2e f2d cAF|G2B AGF G3 F2G|
A2d- d2e f2d cAG|A2c BAG A3 f2g|
agf gfe f2d cAF|G2B AGF G3||

